X: 15298
T: Girls Of Banbridge, The
R: jig
M: 6/8
K: Dmajor
E|:DFA dcB|BAG FED|FAD FAD|CEA, CEA,|
DFA dcB|BAG FED|fdf gec|1 edc d2A:|2 edc d2B||
|:AFA def|gfg efg|f2g fed|cee e2B|
AFA def|gfg efg|f/g/af gec|1 edc d2B:|2 edc d2 f/g/||
|:a3 d'2f|g3 gfg|a2b agf|efe ecA|
a3 d'2f|g3 gfg|bag fge|1 d3 d2 f/g/:|2 d3 cAF||

